icon/hi/arrows-expand.svg

<svg viewBox="0 0 20 20" fill="none" xmlns="http://www.w3.org/2000/svg" height="1em" width="1em">
  <path fill-rule="evenodd" clip-rule="evenodd" d="M3 4C3 3.44772 3.44772 3 4 3H8C8.55228 3 9 3.44772 9 4C9 4.55228 8.55228 5 8 5H6.41421L8.70711 7.29289C9.09763 7.68342 9.09763 8.31658 8.70711 8.70711C8.31658 9.09763 7.68342 9.09763 7.29289 8.70711L5 6.41421V8C5 8.55228 4.55228 9 4 9C3.44772 9 3 8.55228 3 8V4ZM12 5C11.4477 5 11 4.55228 11 4C11 3.44772 11.4477 3 12 3H16C16.5523 3 17 3.44772 17 4V8C17 8.55228 16.5523 9 16 9C15.4477 9 15 8.55228 15 8V6.41421L12.7071 8.70711C12.3166 9.09763 11.6834 9.09763 11.2929 8.70711C10.9024 8.31658 10.9024 7.68342 11.2929 7.29289L13.5858 5H12ZM3 12C3 11.4477 3.44772 11 4 11C4.55228 11 5 11.4477 5 12V13.5858L7.29289 11.2929C7.68342 10.9024 8.31658 10.9024 8.70711 11.2929C9.09763 11.6834 9.09763 12.3166 8.70711 12.7071L6.41421 15H8C8.55228 15 9 15.4477 9 16C9 16.5523 8.55228 17 8 17H4C3.44772 17 3 16.5523 3 16V12ZM16 11C16.5523 11 17 11.4477 17 12V16C17 16.5523 16.5523 17 16 17H12C11.4477 17 11 16.5523 11 16C11 15.4477 11.4477 15 12 15H13.5858L11.2929 12.7071C10.9024 12.3166 10.9024 11.6834 11.2929 11.2929C11.6834 10.9024 12.3166 10.9024 12.7071 11.2929L15 13.5858V12C15 11.4477 15.4477 11 16 11Z" fill="#111827"/>
</svg>

<svg width="20" height="20" fill="none" xmlns="http://www.w3.org/2000/svg"><path fill-rule="evenodd" clip-rule="evenodd" d="M3 4a1 1 0 0 1 1-1h4a1 1 0 0 1 0 2H6.414l2.293 2.293a1 1 0 0 1-1.414 1.414L5 6.414V8a1 1 0 0 1-2 0V4Zm9 1a1 1 0 1 1 0-2h4a1 1 0 0 1 1 1v4a1 1 0 1 1-2 0V6.414l-2.293 2.293a1 1 0 1 1-1.414-1.414L13.586 5H12Zm-9 7a1 1 0 1 1 2 0v1.586l2.293-2.293a1 1 0 0 1 1.414 1.414L6.414 15H8a1 1 0 1 1 0 2H4a1 1 0 0 1-1-1v-4Zm13-1a1 1 0 0 1 1 1v4a1 1 0 0 1-1 1h-4a1 1 0 1 1 0-2h1.586l-2.293-2.293a1 1 0 0 1 1.414-1.414L15 13.586V12a1 1 0 0 1 1-1Z" fill="#111827"/></svg>
